projects/flag-game/flags/Vietnam.svg

<svg viewBox="0 0 1000 750" xmlns="http://www.w3.org/2000/svg"><path d="m0 0h1000v750h-1000z" fill="#da251d"/><g fill="#ff0" fill-rule="evenodd"><path d="m500 225-46.355469 142.660156 95.109375 30.898438zm0 0"/><path d="m500 225 46.355469 142.660156-95.109375 30.898438zm0 0"/><path d="m642.660156 328.644531h-150v100zm0 0"/><path d="m642.660156 328.644531-121.355468 88.171875-58.777344-80.902344zm0 0"/><path d="m588.167969 496.355469-46.351563-142.660157-95.109375 30.898438zm0 0"/><path d="m588.167969 496.355469-121.351563-88.171875 58.777344-80.902344zm0 0"/><path d="m357.339844 328.644531h150v100zm0 0"/><path d="m357.339844 328.644531 121.355468 88.171875 58.777344-80.902344zm0 0"/><path d="m411.832031 496.355469 46.351563-142.660157 95.109375 30.898438zm0 0"/><path d="m411.832031 496.355469 121.351563-88.171875-58.777344-80.902344zm0 0"/></g></svg>

<?xml version="1.0" encoding="UTF-8"?>
<svg xmlns="http://www.w3.org/2000/svg" xmlns:xlink="http://www.w3.org/1999/xlink" viewBox="0 0 1000 750" version="1.1">
<g id="surface1294">
<rect x="0" y="0" width="1000" height="750" style="fill:rgb(85.488892%,14.509583%,11.372375%);fill-opacity:1;stroke:none;"/>
<path style=" stroke:none;fill-rule:evenodd;fill:rgb(99.998474%,99.998474%,0%);fill-opacity:1;" d="M 500 225 L 453.644531 367.660156 L 548.753906 398.558594 Z M 500 225 "/>
<path style=" stroke:none;fill-rule:evenodd;fill:rgb(99.998474%,99.998474%,0%);fill-opacity:1;" d="M 500 225 L 546.355469 367.660156 L 451.246094 398.558594 Z M 500 225 "/>
<path style=" stroke:none;fill-rule:evenodd;fill:rgb(99.998474%,99.998474%,0%);fill-opacity:1;" d="M 642.660156 328.644531 L 492.660156 328.644531 L 492.660156 428.644531 Z M 642.660156 328.644531 "/>
<path style=" stroke:none;fill-rule:evenodd;fill:rgb(99.998474%,99.998474%,0%);fill-opacity:1;" d="M 642.660156 328.644531 L 521.304688 416.816406 L 462.527344 335.914062 Z M 642.660156 328.644531 "/>
<path style=" stroke:none;fill-rule:evenodd;fill:rgb(99.998474%,99.998474%,0%);fill-opacity:1;" d="M 588.167969 496.355469 L 541.816406 353.695312 L 446.707031 384.59375 Z M 588.167969 496.355469 "/>
<path style=" stroke:none;fill-rule:evenodd;fill:rgb(99.998474%,99.998474%,0%);fill-opacity:1;" d="M 588.167969 496.355469 L 466.816406 408.183594 L 525.59375 327.28125 Z M 588.167969 496.355469 "/>
<path style=" stroke:none;fill-rule:evenodd;fill:rgb(99.998474%,99.998474%,0%);fill-opacity:1;" d="M 357.339844 328.644531 L 507.339844 328.644531 L 507.339844 428.644531 Z M 357.339844 328.644531 "/>
<path style=" stroke:none;fill-rule:evenodd;fill:rgb(99.998474%,99.998474%,0%);fill-opacity:1;" d="M 357.339844 328.644531 L 478.695312 416.816406 L 537.472656 335.914062 Z M 357.339844 328.644531 "/>
<path style=" stroke:none;fill-rule:evenodd;fill:rgb(99.998474%,99.998474%,0%);fill-opacity:1;" d="M 411.832031 496.355469 L 458.183594 353.695312 L 553.292969 384.59375 Z M 411.832031 496.355469 "/>
<path style=" stroke:none;fill-rule:evenodd;fill:rgb(99.998474%,99.998474%,0%);fill-opacity:1;" d="M 411.832031 496.355469 L 533.183594 408.183594 L 474.40625 327.28125 Z M 411.832031 496.355469 "/>
</g>
</svg>
